Simply-Black-Circles/scalable/actions/mail-move.svg

<svg xmlns="http://www.w3.org/2000/svg" width="24" height="24"><path d="M12 2.54a9.46 9.46 0 0 0-8.3 4.93l8.14 8h.76l7.86-7.7A9.46 9.46 0 0 0 12 2.54zm0 1.93l4 4-4 4-1.5-1.5 1.5-1.5H8v-2h4l-1.5-1.5 1.5-1.5zm-8.85 4.2A9.46 9.46 0 0 0 2.54 12a9.46 9.46 0 0 0 1.24 4.66l3.72-3.7-4.35-4.29zm17.82.35L17 12.97l3.38 3.39A9.46 9.46 0 0 0 21.46 12a9.46 9.46 0 0 0-.49-2.98zm-12.55 4.8l-3.94 3.91A9.46 9.46 0 0 0 12 21.46a9.46 9.46 0 0 0 7.74-4.02l-3.68-3.61-2.9 2.9h-1.84l-2.9-2.9v-.01z" fill="#1a1a1a"/></svg>

<?xml version="1.0" encoding="UTF-8" standalone="no"?>
<svg
   xmlns:dc="http://purl.org/dc/elements/1.1/"
   xmlns:cc="http://creativecommons.org/ns#"
   xmlns:rdf="http://www.w3.org/1999/02/22-rdf-syntax-ns#"
   xmlns:svg="http://www.w3.org/2000/svg"
   xmlns="http://www.w3.org/2000/svg"
   xmlns:sodipodi="http://sodipodi.sourceforge.net/DTD/sodipodi-0.dtd"
   xmlns:inkscape="http://www.inkscape.org/namespaces/inkscape"
   width="24"
   height="24"
   version="1.1"
   id="svg4"
   sodipodi:docname="mail-move.svg"
   inkscape:version="0.92.4 (5da689c313, 2019-01-14)">
  <metadata
     id="metadata10">
    <rdf:RDF>
      <cc:Work
         rdf:about="">
        <dc:format>image/svg+xml</dc:format>
        <dc:type
           rdf:resource="http://purl.org/dc/dcmitype/StillImage" />
        <dc:title></dc:title>
      </cc:Work>
    </rdf:RDF>
  </metadata>
  <defs
     id="defs8" />
  <sodipodi:namedview
     pagecolor="#ffffff"
     bordercolor="#666666"
     borderopacity="1"
     objecttolerance="10"
     gridtolerance="10"
     guidetolerance="10"
     inkscape:pageopacity="0"
     inkscape:pageshadow="2"
     inkscape:window-width="1078"
     inkscape:window-height="480"
     id="namedview6"
     showgrid="false"
     inkscape:zoom="9.8333333"
     inkscape:cx="-0.81355932"
     inkscape:cy="12"
     inkscape:window-x="0"
     inkscape:window-y="28"
     inkscape:window-maximized="0"
     inkscape:current-layer="svg4" />
  <path
     d="M 12,2.54 A 9.46,9.46 0 0 0 3.7,7.47 l 8.14,8 h 0.76 l 7.86,-7.7 A 9.46,9.46 0 0 0 12,2.54 Z m 0,1.93 4,4 -4,4 -1.5,-1.5 1.5,-1.5 H 8 v -2 h 4 L 10.5,5.97 Z M 3.15,8.67 A 9.46,9.46 0 0 0 2.54,12 9.46,9.46 0 0 0 3.78,16.66 L 7.5,12.96 Z M 20.97,9.02 17,12.97 20.38,16.36 A 9.46,9.46 0 0 0 21.46,12 9.46,9.46 0 0 0 20.97,9.02 Z m -12.55,4.8 -3.94,3.91 a 9.46,9.46 0 0 0 7.52,3.73 9.46,9.46 0 0 0 7.74,-4.02 l -3.68,-3.61 -2.9,2.9 h -1.84 l -2.9,-2.9 z"
     id="path2"
     inkscape:connector-curvature="0"
     style="fill:#1a1a1a" />
</svg>
